packages/core/src/svgs/tokens/branded/EPIK.svg

<svg width="24" height="24" viewBox="0 0 24 24" fill="none" xmlns="http://www.w3.org/2000/svg">
<path fill-rule="evenodd" clip-rule="evenodd" d="M12 22C13.3133 22 14.6136 21.7414 15.8268 21.2388C17.0401 20.7362 18.1425 19.9997 19.071 19.0711C19.9997 18.1425 20.7362 17.0401 21.2388 15.8269C21.7414 14.6136 22 13.3132 22 12C22 10.6868 21.7414 9.38643 21.2388 8.17317C20.7362 6.95992 19.9997 5.85752 19.071 4.92894C18.1425 4.00035 17.0401 3.26376 15.8268 2.76121C14.6136 2.25866 13.3133 2 12 2C9.34784 2 6.80429 3.05358 4.92894 4.92894C3.05358 6.80431 2 9.34784 2 12C2 14.6522 3.05358 17.1957 4.92894 19.0711C6.80429 20.9465 9.34784 22 12 22ZM12 20.8889C14.3574 20.8889 16.6184 19.9524 18.2855 18.2854C19.9524 16.6184 20.8889 14.3575 20.8889 12C20.8889 9.64252 19.9524 7.3816 18.2855 5.71462C16.6184 4.04762 14.3574 3.11112 12 3.11112C9.64254 3.11112 7.3816 4.04762 5.71462 5.71462C4.04762 7.3816 3.11112 9.64252 3.11112 12C3.11112 14.3575 4.04762 16.6184 5.71462 18.2854C7.3816 19.9524 9.64254 20.8889 12 20.8889Z" fill="#683CA4"/>
<path d="M11.4436 6.15573C11.4436 5.70017 11.8103 5.33351 12.2603 5.33351H13.1103V17.5724C13.1103 18.1779 12.6214 18.6669 12.0159 18.6669H11.4436V6.15573Z" fill="url(#paint0_linear_364_11743)"/>
<path d="M14.7768 11.1336H14.5878C11.9434 11.1336 9.48234 11.1336 9.48234 9.4113C9.48234 7.50019 13.5378 7.83908 15.1823 8.63351C15.4934 8.78352 15.9323 8.75574 16.1489 8.48352L16.5934 7.92796C16.6178 7.89904 16.6356 7.86507 16.6452 7.82849C16.6549 7.79189 16.6563 7.75361 16.6494 7.71641C16.6426 7.67919 16.6274 7.64398 16.6052 7.61331C16.5831 7.58264 16.5544 7.55729 16.5212 7.53908C15.1776 6.8314 13.684 6.4561 12.1657 6.44463C9.47676 6.44463 7.19896 7.69463 7.19896 9.41688C7.19896 10.7335 8.58786 11.4613 9.37674 11.6946H9.36563C8.56008 11.9002 6.74341 12.8946 6.74341 14.3502C6.74341 16.1724 9.16008 17.5557 12.0045 17.5557C14.0268 17.5557 15.9878 16.789 16.8268 16.3224C16.9767 16.239 17.0101 16.0446 16.9045 15.9057L16.4434 15.3224C16.2101 15.0335 15.7434 15.0057 15.41 15.1669C13.6768 16.0001 9.31007 16.3836 9.31007 14.3502C9.31007 12.5502 11.7156 12.5557 14.4601 12.5557H14.7768V11.1336Z" fill="#FEFCFF"/>
<defs>
<linearGradient id="paint0_linear_364_11743" x1="25.519" y1="5.79462" x2="25.0668" y2="19.0634" gradientUnits="userSpaceOnUse">
<stop stop-color="#FEFCFF"/>
<stop offset="0.17" stop-color="#FEFCFF" stop-opacity="0"/>
<stop offset="0.24" stop-color="#FEFCFF" stop-opacity="0"/>
<stop offset="0.32" stop-color="#FEFCFF"/>
<stop offset="0.42" stop-color="#FEFCFF" stop-opacity="0"/>
<stop offset="0.58" stop-color="#FEFCFF" stop-opacity="0"/>
<stop offset="0.67" stop-color="#FEFCFF"/>
<stop offset="0.76" stop-color="#FEFCFF" stop-opacity="0"/>
<stop offset="0.84" stop-color="#FEFCFF" stop-opacity="0"/>
<stop offset="1" stop-color="#FEFCFF"/>
</linearGradient>
</defs>
</svg>

<svg xmlns="http://www.w3.org/2000/svg" width="24" height="24" fill="none" viewBox="0 0 24 24">
    <path fill="#683CA4" fill-rule="evenodd" d="M12 22a9.998 9.998 0 0 0 9.239-13.827A10 10 0 1 0 12 22m0-1.111A8.89 8.89 0 1 0 12 3.11a8.89 8.89 0 0 0 0 17.779" clip-rule="evenodd"/>
    <path fill="url(#EPIK__a)" d="M11.444 6.156a.82.82 0 0 1 .816-.822h.85v12.238c0 .606-.489 1.095-1.094 1.095h-.572z"/>
    <path fill="#FEFCFF" d="M14.777 11.134h-.19c-2.644 0-5.105 0-5.105-1.723 0-1.91 4.056-1.572 5.7-.777.311.15.75.122.967-.15l.444-.556a.255.255 0 0 0-.072-.389 9.5 9.5 0 0 0-4.355-1.094c-2.69 0-4.967 1.25-4.967 2.972 0 1.316 1.389 2.044 2.178 2.278h-.011c-.806.205-2.623 1.2-2.623 2.655 0 1.822 2.417 3.206 5.262 3.206 2.022 0 3.983-.767 4.822-1.234a.278.278 0 0 0 .077-.416l-.46-.584c-.234-.288-.7-.316-1.034-.155-1.733.833-6.1 1.217-6.1-.817 0-1.8 2.406-1.794 5.15-1.794h.317z"/>
    <defs>
        <linearGradient id="EPIK__a" x1="25.519" x2="25.067" y1="5.795" y2="19.063" gradientUnits="userSpaceOnUse">
            <stop stop-color="#FEFCFF"/>
            <stop offset=".17" stop-color="#FEFCFF" stop-opacity="0"/>
            <stop offset=".24" stop-color="#FEFCFF" stop-opacity="0"/>
            <stop offset=".32" stop-color="#FEFCFF"/>
            <stop offset=".42" stop-color="#FEFCFF" stop-opacity="0"/>
            <stop offset=".58" stop-color="#FEFCFF" stop-opacity="0"/>
            <stop offset=".67" stop-color="#FEFCFF"/>
            <stop offset=".76" stop-color="#FEFCFF" stop-opacity="0"/>
            <stop offset=".84" stop-color="#FEFCFF" stop-opacity="0"/>
            <stop offset="1" stop-color="#FEFCFF"/>
        </linearGradient>
    </defs>
</svg>
